DenisNovikLanding/build/img/svg/XD.svg

<svg width="90" height="87" viewBox="0 0 90 87" fill="none" xmlns="http://www.w3.org/2000/svg">
<path d="M8.48615 21.5124C8.51162 21.4234 8.63772 21.4234 8.66319 21.5124L8.7794 21.9185C8.79306 21.9662 8.84209 21.9945 8.89024 21.9825L9.30067 21.8799C9.39057 21.8574 9.4536 21.9669 9.38906 22.0334L9.09537 22.3359C9.06069 22.3716 9.06069 22.4284 9.09537 22.4642L9.38906 22.7667C9.45361 22.8332 9.39057 22.9426 9.30067 22.9201L8.89024 22.8175C8.84209 22.8055 8.79306 22.8338 8.7794 22.8815L8.66319 23.2876C8.63772 23.3766 8.51162 23.3766 8.48615 23.2876L8.36994 22.8815C8.35628 22.8338 8.30725 22.8055 8.2591 22.8175L7.84867 22.9201C7.75877 22.9426 7.69573 22.8332 7.76028 22.7667L8.05397 22.4642C8.08865 22.4284 8.08865 22.3716 8.05397 22.3359L7.76028 22.0334C7.69573 21.9669 7.75877 21.8574 7.84867 21.8799L8.25909 21.9825C8.30725 21.9945 8.35628 21.9662 8.36994 21.9185L8.48615 21.5124Z" fill="#E5E5E5"/>
<g clip-path="url(#clip0_254_460)">
<path d="M4.19635 3.70898H85.7809V83.0685H4.19635V3.70898Z" fill="#2E001E"/>
<path d="M0.486816 0V86.775H89.4868V0H0.486816ZM4.19634 3.70952H85.7809V83.069H4.19634V3.70952Z" fill="#FF2BC2"/>
<path d="M65.1222 36.4548C64.5668 36.1949 63.8619 36.0846 62.9719 36.0846C58.2977 36.0846 55.1827 39.6802 55.1827 45.6539C55.1827 52.4784 58.3724 55.2231 62.5269 55.2231C63.4169 55.2231 64.3817 55.1128 65.0866 54.8137V36.4548H65.1222ZM48.5112 45.9458C48.5112 37.3057 54.0755 30.5559 63.1962 30.5559C63.9759 30.5559 64.3817 30.5559 65.1257 30.6307V20.9902C65.1257 20.7695 65.3109 20.6199 65.496 20.6199H71.4661C71.7616 20.6199 71.8363 20.7303 71.8363 20.9154V54.8102C71.8363 55.8105 71.8363 57.0708 72.0215 58.4449C72.0215 58.7048 72.0215 58.7404 71.7972 58.8543C68.6822 60.3389 65.4177 61.0046 62.3027 61.0046C54.2571 61.001 48.5112 56.0348 48.5112 45.9458ZM35.8661 39.9401L46.2506 60.0754C46.4357 60.3709 46.3254 60.6699 46.0263 60.6699H39.5721C39.1627 60.6699 38.9775 60.5596 38.7924 60.1893C36.4179 55.2943 34.0078 50.2142 31.5229 44.949H31.4481C29.2231 49.9187 26.7774 55.3335 24.4029 60.2285C24.2178 60.524 24.0327 60.6379 23.7336 60.6379H17.5819C17.2117 60.6379 17.1725 60.3424 17.3577 60.1181L27.5179 40.5737L17.6923 21.1433C17.468 20.8478 17.6923 20.5879 17.9522 20.5879H24.3317C24.7019 20.5879 24.8871 20.6627 25.001 20.9973C27.3363 25.9279 29.7109 30.7873 31.9359 35.7571H32.0106C34.1609 30.8621 36.5354 25.9315 38.796 21.0721C38.9811 20.7766 39.0915 20.5915 39.4653 20.5915H45.4354C45.7309 20.5915 45.8448 20.8157 45.6597 21.1468L35.8661 39.9401Z" fill="#FF2BC2"/>
</g>
<defs>
<clipPath id="clip0_254_460">
<rect width="89" height="86.775" fill="white" transform="translate(0.486816)"/>
</clipPath>
</defs>
</svg>

<svg width="90" height="87" fill="none" xmlns="http://www.w3.org/2000/svg"><path d="M8.486 21.512c.026-.089.152-.089.177 0l.116.407a.092.092 0 00.111.064l.41-.103c.09-.023.154.087.09.153l-.295.303a.092.092 0 000 .128l.294.303c.065.066.002.176-.088.153l-.41-.103a.092.092 0 00-.112.064l-.116.407c-.025.089-.151.089-.177 0l-.116-.407a.092.092 0 00-.11-.064l-.411.103c-.09.023-.153-.087-.089-.153l.294-.303a.092.092 0 000-.128l-.294-.303c-.064-.066-.001-.176.089-.153l.41.103a.092.092 0 00.11-.064l.117-.407z" fill="#E5E5E5"/><g clip-path="url(#clip0_254_460)"><path d="M4.196 3.709h81.585v79.36H4.196V3.709z" fill="#2E001E"/><path d="M.487 0v86.775h89V0h-89zm3.71 3.71H85.78v79.359H4.196V3.709z" fill="#FF2BC2"/><path d="M65.122 36.455c-.555-.26-1.26-.37-2.15-.37-4.674 0-7.79 3.595-7.79 9.569 0 6.824 3.19 9.57 7.345 9.57.89 0 1.855-.111 2.56-.41v-18.36h.035zm-16.61 9.49c0-8.64 5.563-15.39 14.684-15.39.78 0 1.186 0 1.93.076v-9.64c0-.221.185-.371.37-.371h5.97c.296 0 .37.11.37.295V54.81c0 1 0 2.26.186 3.635 0 .26 0 .295-.225.41a22.075 22.075 0 01-9.494 2.15C54.257 61 48.51 56.035 48.51 45.945zM35.865 39.94L46.25 60.075c.185.296.074.595-.225.595h-6.454c-.41 0-.595-.11-.78-.48a1590.541 1590.541 0 01-7.27-15.241h-.074c-2.225 4.97-4.67 10.385-7.045 15.28-.185.295-.37.409-.67.409h-6.151c-.37 0-.41-.296-.224-.52l10.16-19.544-9.826-19.43c-.224-.296 0-.556.26-.556h6.38c.37 0 .555.075.669.41 2.335 4.93 4.71 9.79 6.935 14.76h.075c2.15-4.896 4.524-9.827 6.785-14.686.185-.295.296-.48.67-.48h5.97c.295 0 .409.224.224.555L35.866 39.94z" fill="#FF2BC2"/></g><defs><clipPath id="clip0_254_460"><path fill="#fff" transform="translate(.487)" d="M0 0h89v86.775H0z"/></clipPath></defs></svg>
